sprites/svg/maki-theatre.svg

<?xml version="1.0" encoding="UTF-8" standalone="no"?>
<!-- Created with Inkscape (http://www.inkscape.org/) -->

<svg
   xmlns:dc="http://purl.org/dc/elements/1.1/"
   xmlns:cc="http://creativecommons.org/ns#"
   xmlns:rdf="http://www.w3.org/1999/02/22-rdf-syntax-ns#"
   xmlns:svg="http://www.w3.org/2000/svg"
   xmlns="http://www.w3.org/2000/svg"
   version="1.1"
   width="24"
   height="24"
   id="svg4460">
  <defs
     id="defs4462" />
  <metadata
     id="metadata4465">
    <rdf:RDF>
      <cc:Work
         rdf:about="">
        <dc:format>image/svg+xml</dc:format>
        <dc:type
           rdf:resource="http://purl.org/dc/dcmitype/StillImage" />
        <dc:title></dc:title>
      </cc:Work>
    </rdf:RDF>
  </metadata>
  <path
     d="M 5,3 C 4.5286,3 4,3.5 4,4 l 0,7 c 0,2.216 1,5 5,5 0.35868,0 0.68618,-0.017 1,-0.062 l 0,-2.9375 -4,0 c 0,0 0.5,-2 3,-2 0.5,0 0.69653,0.074 1,0.1875 l 0,-2.1875 c 0,-0.9167 0.36529,-1.6826 1,-2 1,-0.5 1.40372,-0.2981 2,0 1,0.5 1,0.5 1,0.5 l 0,-3.5 c 0,-0.5 -0.5286,-1 -1,-1 -1,0 -2,1 -4,1 -2,0 -3,-1 -4,-1 z M 6.75,6.5 C 7.44036,6.5 8,7.0596 8,7.75 8,8.4404 7.44036,9 6.75,9 6.05964,9 5.5,8.4404 5.5,7.75 5.5,7.0596 6.05964,6.5 6.75,6.5 z M 12,8 c -0.4714,0 -1,0.5 -1,1 l 0,7 c 0,2.216 1,5 5,5 4,0 5,-2.784 5,-5 L 21,9 C 21,8.5 20.4714,8 20,8 19,8 18,9 16,9 14,9 13,8 12,8 z m 1.75,3.5 c 0.69036,0 1.25,0.5596 1.25,1.25 0,0.6904 -0.55964,1.25 -1.25,1.25 -0.69036,0 -1.25,-0.5596 -1.25,-1.25 0,-0.6904 0.55964,-1.25 1.25,-1.25 z m 4.5,0 c 0.69036,0 1.25,0.5596 1.25,1.25 C 19.5,13.4404 18.94036,14 18.25,14 17.55964,14 17,13.4404 17,12.75 17,12.0596 17.55964,11.5 18.25,11.5 z M 13,17 l 6,0 c 0,0 -0.5,2 -3,2 -2.5,0 -3,-2 -3,-2 z"
     id="path12311"
     style="opacity:0.3;color:#000000;fill:#ffffff;fill-opacity:1;fill-rule:nonzero;stroke:#ffffff;stroke-width:2;stroke-linecap:round;stroke-linejoin:round;stroke-miterlimit:4;stroke-opacity:1;stroke-dasharray:none;stroke-dashoffset:0;marker:none;visibility:visible;display:inline;overflow:visible;enable-background:accumulate" />
  <path
     d="M 5,3 C 4.5286,3 4,3.5 4,4 l 0,7 c 0,2.216 1,5 5,5 0.35868,0 0.68618,-0.017 1,-0.062 l 0,-2.9375 -4,0 c 0,0 0.5,-2 3,-2 0.5,0 0.69653,0.074 1,0.1875 l 0,-2.1875 c 0,-0.9167 0.36529,-1.6826 1,-2 1,-0.5 1.40372,-0.2981 2,0 1,0.5 1,0.5 1,0.5 l 0,-3.5 c 0,-0.5 -0.5286,-1 -1,-1 -1,0 -2,1 -4,1 -2,0 -3,-1 -4,-1 z M 6.75,6.5 C 7.44036,6.5 8,7.0596 8,7.75 8,8.4404 7.44036,9 6.75,9 6.05964,9 5.5,8.4404 5.5,7.75 5.5,7.0596 6.05964,6.5 6.75,6.5 z M 12,8 c -0.4714,0 -1,0.5 -1,1 l 0,7 c 0,2.216 1,5 5,5 4,0 5,-2.784 5,-5 L 21,9 C 21,8.5 20.4714,8 20,8 19,8 18,9 16,9 14,9 13,8 12,8 z m 1.75,3.5 c 0.69036,0 1.25,0.5596 1.25,1.25 0,0.6904 -0.55964,1.25 -1.25,1.25 -0.69036,0 -1.25,-0.5596 -1.25,-1.25 0,-0.6904 0.55964,-1.25 1.25,-1.25 z m 4.5,0 c 0.69036,0 1.25,0.5596 1.25,1.25 C 19.5,13.4404 18.94036,14 18.25,14 17.55964,14 17,13.4404 17,12.75 17,12.0596 17.55964,11.5 18.25,11.5 z M 13,17 l 6,0 c 0,0 -0.5,2 -3,2 -2.5,0 -3,-2 -3,-2 z"
     id="path6342"
     style="color:#000000;fill:#444444;fill-opacity:1;fill-rule:nonzero;stroke:none;stroke-width:0.055;marker:none;visibility:visible;display:inline;overflow:visible;enable-background:accumulate" />
  <rect
     width="24"
     height="24"
     x="0"
     y="0"
     id="canvas"
     style="fill:none;stroke:none;visibility:hidden" />
</svg>

<svg xmlns="http://www.w3.org/2000/svg" width="24" height="24"><path d="M5 3c-.471 0-1 .5-1 1v7c0 2.216 1 5 5 5 .359 0 .686-.017 1-.062V13H6s.5-2 3-2c.5 0 .697.075 1 .188V9c0-.916.365-1.682 1-2 1-.5 1.404-.298 2 0l1 .5V4c0-.5-.529-1-1-1-1 0-2 1-4 1S6 3 5 3zm1.75 3.5a1.25 1.25 0 1 1 0 2.5 1.25 1.25 0 0 1 0-2.5zM12 8c-.471 0-1 .5-1 1v7c0 2.216 1 5 5 5s5-2.784 5-5V9c0-.5-.529-1-1-1-1 0-2 1-4 1s-3-1-4-1zm1.75 3.5a1.25 1.25 0 1 1 0 2.5 1.25 1.25 0 0 1 0-2.5zm4.5 0a1.25 1.25 0 1 1 0 2.5 1.25 1.25 0 0 1 0-2.5zM13 17h6s-.5 2-3 2-3-2-3-2z" style="opacity:.3;color:#000;fill:#fff;fill-opacity:1;fill-rule:nonzero;stroke:#fff;stroke-width:2;stroke-linecap:round;stroke-linejoin:round;stroke-miterlimit:4;stroke-opacity:1;stroke-dasharray:none;stroke-dashoffset:0;marker:none;visibility:visible;display:inline;overflow:visible;enable-background:accumulate"/><path d="M5 3c-.471 0-1 .5-1 1v7c0 2.216 1 5 5 5 .359 0 .686-.017 1-.062V13H6s.5-2 3-2c.5 0 .697.075 1 .188V9c0-.916.365-1.682 1-2 1-.5 1.404-.298 2 0l1 .5V4c0-.5-.529-1-1-1-1 0-2 1-4 1S6 3 5 3zm1.75 3.5a1.25 1.25 0 1 1 0 2.5 1.25 1.25 0 0 1 0-2.5zM12 8c-.471 0-1 .5-1 1v7c0 2.216 1 5 5 5s5-2.784 5-5V9c0-.5-.529-1-1-1-1 0-2 1-4 1s-3-1-4-1zm1.75 3.5a1.25 1.25 0 1 1 0 2.5 1.25 1.25 0 0 1 0-2.5zm4.5 0a1.25 1.25 0 1 1 0 2.5 1.25 1.25 0 0 1 0-2.5zM13 17h6s-.5 2-3 2-3-2-3-2z" style="color:#000;fill:#444;fill-opacity:1;fill-rule:nonzero;stroke:none;stroke-width:.055;marker:none;visibility:visible;display:inline;overflow:visible;enable-background:accumulate"/></svg>
